X:029
T: On the Lake of Killarney
N: O'Farrell's Pocket Companion v.1 (Sky ed. p.29-30)
N: "Irish"
% The original notation for the fourth part showed an F natural only in the first measure. I
% have extended it into the next two measures.
M: 6/4
L: 1/4
Q: 80
R: waltz
K: G
P: 1
G/A/| BGG AGG | dBe dBg| eAA AA/B/c/d/|ecA A2 G/A/|
BGG AGG |dBg Hg2 f/e/|d c/B/A/G/ d/B/ G E |DGG G2 z|
P: 2
d/e/d/B/ g d/e/d/B/ g|cAA A2 B/c/|d/e/d/B/ g/>e/ d/B/ G E|D G G HG2||
P: 3
B/c/|dBG dBG|cee e>fg|dBG dBG|cAA A2 B/c/|dBG dBG|def Hg2 f/e/|
dBG dBG A A/B/c/d/ He2||
P: 1
G/A/| BGGAGG | dBedBg| eAAAA/B/c/d/|ecA A2 G/A/|
BGGAGG |dBg Hg2 f/e/|d c/B/A/G/ d/B/ G E |DGG G2 z/G/|
P: 4
D=FF EGG|=F D/E/F/D/ G2 G|D=FF EGG|^F D/E/F/D/ G2 G/A/|BGD BGd|BGG c2 B/A/|
BGD BGd|A A/B/c/d/ e2 d/c/|
P: 1
BGGAGG | dBedBg| eAAAA/B/c/d/|ecA A2 G/A/|
BGGAGG |dBg Hg2 f/e/|d c/B/A/G/ d/B/ G E |D G G G2 z|
d/e/d/B/ g d/e/d/B/ g|cAA A2 B/c/|d/e/d/B/ g/>e/ d/B/ G E|DGG HG2||
